X:39
T:Christmas Eve
Z: id:dc-reel-38
M:C
L:1/8
K:G Major
GE|DB,DE GFGA|B2dB ABGB|ABGE DB,DE|G2BG ABGE|!
DB,DE GFGA|B2dB ABGA|BAA2 GEBG|ABGE G2:|!
GA|BABd edeg|abge g2eg|a2ge gage|dedB A2GA|!
BABd edeg|abge g2eg|a2ge d2BG|ABGE G2:|!
dc|BGG2 dGBd|egg2 egdc|BGG2 B2AG|EAA2 EAA2|!
BGG2 dGBd|egg2 egga|bgaf gedB|ABGE G2:|!

